icons/person-cross.svg

<svg xmlns="http://www.w3.org/2000/svg" width="24" height="24" viewBox="0 0 24 24">
  <path d="M10,16 C12.9230769,16 15.8461538,16.9493754 15.9941334,19.3106425 L16,19.5 L16,20.5 C16,20.975 16,21.90125 15.142625,21.9926875 L15,22 L3,22 C2.1,22 2.01,21.19 2.001,20.6635 L2,19.5 C2,17.0641026 4.84812623,16.0522682 7.76928134,16.0019808 L8,16 L10,16 Z M9,6 C11.209139,6 13,7.790861 13,10 C13,12.209139 11.209139,14 9,14 C6.790861,14 5,12.209139 5,10 C5,7.790861 6.790861,6 9,6 Z M16.6128994,3.20970461 L16.7071068,3.29289322 L18,4.585 L19.2928932,3.29289322 C19.6834175,2.90236893 20.3165825,2.90236893 20.7071068,3.29289322 C21.0675907,3.65337718 21.0953203,4.22060824 20.7902954,4.61289944 L20.7071068,4.70710678 L19.415,6 L20.7071068,7.29289322 C21.0976311,7.68341751 21.0976311,8.31658249 20.7071068,8.70710678 C20.3466228,9.06759074 19.7793918,9.09532028 19.3871006,8.79029539 L19.2928932,8.70710678 L18,7.415 L16.7071068,8.70710678 C16.3165825,9.09763107 15.6834175,9.09763107 15.2928932,8.70710678 C14.9324093,8.34662282 14.9046797,7.77939176 15.2097046,7.38710056 L15.2928932,7.29289322 L16.585,6 L15.2928932,4.70710678 C14.9023689,4.31658249 14.9023689,3.68341751 15.2928932,3.29289322 C15.6533772,2.93240926 16.2206082,2.90467972 16.6128994,3.20970461 Z"/>
</svg>

<svg xmlns="http://www.w3.org/2000/svg" viewBox="0 0 24 24">
  <path d="M10 16c2.92 0 5.85.95 6 3.31v1.19c0 .48 0 1.4-.86 1.5H3c-.9 0-.99-.81-1-1.34V19.5c0-2.44 2.85-3.45 5.77-3.5H10zM9 6a4 4 0 1 1 0 8 4 4 0 0 1 0-8zm7.61-2.79.1.08L18 4.6l1.3-1.3a1 1 0 0 1 1.49 1.32l-.08.1L19.4 6l1.3 1.3a1 1 0 0 1-1.32 1.49l-.1-.08L18 7.4l-1.3 1.3a1 1 0 0 1-1.49-1.32l.08-.1L16.6 6l-1.3-1.3a1 1 0 0 1 1.32-1.49z"/>
</svg>
